aces_luts/ACEScc_to_linear.spi1d
Version 1
From -0.3584 1.468
Length 4096
Components 1
{
 1.7596903490e-08
 1.8344144337e-07
 3.5018456401e-07
 5.1781177035e-07
 6.8635199568e-07
 8.5582740894e-07
 1.0262266414e-06
 1.1975245116e-06
 1.3697791701e-06
 1.5429432096e-06
 1.7170714273e-06
 1.8921454057e-06
 2.0681691240e-06
 2.2451313271e-06
 2.4230723739e-06
 2.6019590678e-06
 2.7818391573e-06
 2.9626937703e-06
 3.1445129025e-06
 3.3273174722e-06
 3.5111338548e-06
 3.6959534100e-06
 3.8817747736e-06
 4.0686068132e-06
 4.2564279283e-06
 4.4452940529e-06
 4.6351638048e-06
 4.8260844778e-06
 5.0180424296e-06
 5.2110226534e-06
 5.4050510698e-06
 5.6001522353e-06
 5.7963152358e-06
 5.9935446188e-06
 6.1918221945e-06
 6.3911975303e-06
 6.5916356107e-06
 6.7931823651e-06
 6.9958259701e-06
 7.1995709732e-06
 7.4043709901e-06
 7.6103356150e-06
 7.8174161899e-06
 8.0256213550e-06
 8.2349588411e-06
 8.4454068201e-06
 8.6570262283e-06
 8.8697634055e-06
 9.0836838353e-06
 9.2987684184e-06
 9.5150226116e-06
 9.7323927548e-06
 9.9509998108e-06
 1.0170795576e-05
 1.0391785509e-05
 1.0613945960e-05
 1.0837340596e-05
 1.1061920304e-05
 1.1287746020e-05
 1.1514799553e-05
 1.1743089999e-05
 1.1972589164e-05
 1.2203333426e-05
 1.2435360986e-05
 1.2668651834e-05
 1.2903202332e-05
 1.3139000657e-05
 1.3376108654e-05
 1.3614478121e-05
 1.3854169083e-05
 1.4095166080e-05
 1.4337463654e-05
 1.4581051801e-05
 1.4825965081e-05
 1.5072238966e-05
 1.5319845261e-05
 1.5568768504e-05
 1.5819074179e-05
 1.6070709535e-05
 1.6323741875e-05
 1.6578149371e-05
 1.6833932023e-05
 1.7091078917e-05
 1.7349653717e-05
 1.7609594579e-05
 1.7870988813e-05
 1.8133798221e-05
 1.8398002794e-05
 1.8663678929e-05
 1.8930753868e-05
 1.9199322196e-05
 1.9469345716e-05
 1.9740835342e-05
 2.0013767426e-05
 2.0288216547e-05
 2.0564120859e-05
 2.0841554942e-05
 2.1120500605e-05
 2.1400926926e-05
 2.1682873921e-05
 2.1966379791e-05
 2.2251435439e-05
 2.2538035410e-05
 2.2826156055e-05
 2.3115882868e-05
 2.3407137633e-05
 2.3700016754e-05
 2.3994482035e-05
 2.4290555302e-05
 2.4588194719e-05
 2.4887449399e-05
 2.5188368454e-05
 2.5490917324e-05
 2.5795110560e-05
 2.6100920877e-05
 2.6408431950e-05
 2.6717572837e-05
 2.7028427212e-05
 2.7340973247e-05
 2.7655212762e-05
 2.7971087547e-05
 2.8288750400e-05
 2.8608148568e-05
 2.8929269320e-05
 2.9252096283e-05
 2.9576725865e-05
 2.9903068935e-05
 3.0231229175e-05
 3.0539380532e-05
 3.0705239624e-05
 3.0871990020e-05
 3.1039642636e-05
 3.1208222936e-05
 3.1377723644e-05
 3.1548141123e-05
 3.1719468097e-05
 3.1891737308e-05
 3.2064934203e-05
 3.2239091524e-05
 3.2414183806e-05
 3.2590225601e-05
 3.2767216908e-05
 3.2945157727e-05
 3.3124091715e-05
 3.3303997043e-05
 3.3484851883e-05
 3.3666718082e-05
 3.3849555621e-05
 3.4033397242e-05
 3.4218235669e-05
 3.4404089092e-05
 3.4590913856e-05
 3.4778786357e-05
 3.4967659303e-05
 3.5157572711e-05
 3.5348522943e-05
 3.5540484532e-05
 3.5733515688e-05
 3.5927569115e-05
 3.6122695747e-05
 3.6318891944e-05
 3.6516146793e-05
 3.6714449379e-05
 3.6913850636e-05
 3.7114317820e-05
 3.7315894588e-05
 3.7518562749e-05
 3.7722311390e-05
 3.7927169615e-05
 3.8133155613e-05
 3.8340262108e-05
 3.8548500015e-05
 3.8757843868e-05
 3.8968340959e-05
 3.9179965825e-05
 3.9392762119e-05
 3.9606708015e-05
 3.9821825339e-05
 4.0038081352e-05
 4.0255501517e-05
 4.0474147681e-05
 4.0693972551e-05
 4.0914983401e-05
 4.1137176595e-05
 4.1360610339e-05
 4.1585219151e-05
 4.1811072151e-05
 4.2038158426e-05
 4.2266481614e-05
 4.2495976231e-05
 4.2726795073e-05
 4.2958847189e-05
 4.3192168960e-05
 4.3426727643e-05
 4.3662588723e-05
 4.3899690354e-05
 4.4138123485e-05
 4.4377851736e-05
 4.4618875108e-05
 4.4861215429e-05
 4.5104803576e-05
 4.5349774155e-05
 4.5596087148e-05
 4.5843724365e-05
 4.6092682169e-05
 4.6343022404e-05
 4.6594690502e-05
 4.6847759222e-05
 4.7102199460e-05
 4.7358025768e-05
 4.7615201765e-05
 4.7873782023e-05
 4.8133799282e-05
 4.8395224439e-05
 4.8658039304e-05
 4.8922309361e-05
 4.9187983677e-05
 4.9455127737e-05
 4.9723734264e-05
 4.9993795983e-05
 5.0265323807e-05
 5.0538292271e-05
 5.0812748668e-05
 5.1088725741e-05
 5.1366198022e-05
 5.1645143685e-05
 5.1925639127e-05
 5.2207629778e-05
 5.2491181123e-05
 5.2776271332e-05
 5.3062911320e-05
 5.3351075621e-05
 5.3640836995e-05
 5.3932137234e-05
 5.4225049098e-05
 5.4519554396e-05
 5.4815627664e-05
 5.5113312555e-05
 5.5412645452e-05
 5.5713600887e-05
 5.6016204326e-05
 5.6320397562e-05
 5.6626293372e-05
 5.6933837186e-05
 5.7243018091e-05
 5.7553923398e-05
 5.7866505813e-05
 5.8180754422e-05
 5.8496712882e-05
 5.8814417571e-05
 5.9133861214e-05
 5.9455021983e-05
 5.9777903516e-05
 6.0102567659e-05
 6.0428963479e-05
 6.0757160099e-05
 6.1087142967e-05
 6.1418933910e-05
 6.1752478359e-05
 6.2087812694e-05
 6.2425031501e-05
 6.2764076574e-05
 6.3104947913e-05
 6.3447652792e-05
 6.3792205765e-05
 6.4138679591e-05
 6.4487045165e-05
 6.4837287937e-05
 6.5189378802e-05
 6.5543390519e-05
 6.5899381298e-05
 6.6257292929e-05
 6.6617147240e-05
 6.6978907853e-05
 6.7342705734e-05
 6.7708395363e-05
 6.8076158641e-05
 6.8445886427e-05
 6.8817629653e-05
 6.9191344664e-05
 6.9567104219e-05
 6.9944930146e-05
 7.0324815169e-05
 7.0706759288e-05
 7.1090740676e-05
 7.1476846642e-05
 7.1865011705e-05
 7.2255330451e-05
 7.2647766501e-05
 7.3042283475e-05
 7.3438997788e-05
 7.3837814853e-05
 7.4238851084e-05
 7.4642055552e-05
 7.5047391874e-05
 7.5455005572e-05
 7.5864765677e-05
 7.6276795880e-05
 7.6691081631e-05
 7.7107601101e-05
 7.7526347013e-05
 7.7947406680e-05
 7.8370700066e-05
 7.8796350863e-05
 7.9224308138e-05
 7.9654542787e-05
 8.0087178503e-05
 8.0522091594e-05
 8.0959434854e-05
 8.1399135524e-05
 8.1841164501e-05
 8.2285667304e-05
 8.2732527517e-05
 8.3181861555e-05
 8.3633647591e-05
 8.4087812866e-05
 8.4544517449e-05
 8.5003659478e-05
 8.5465326265e-05
 8.5929495981e-05
 8.6396219558e-05
 8.6865395133e-05
 8.7337175501e-05
 8.7811466074e-05
 8.8288397819e-05
 8.8767897978e-05
 8.9249966550e-05
 8.9734698122e-05
 9.0222012659e-05
 9.0712026577e-05
 9.1204710770e-05
 9.1700065241e-05
 9.2198046332e-05
 9.2698799563e-05
 9.3202193966e-05
 9.3708396889e-05
 9.4217364676e-05
 9.4729002740e-05
 9.5243492979e-05
 9.5760740805e-05
 9.6280833532e-05
 9.6803763881e-05
 9.7329517303e-05
 9.7858071967e-05
 9.8389558843e-05
 9.8923868791e-05
 9.9461140053e-05
 1.0000134353e-04
 1.0054442828e-04
 1.0109048162e-04
 1.0163945990e-04
 1.0219149408e-04
 1.0274652595e-04
 1.0330449004e-04
 1.0386553913e-04
 1.0442960775e-04
 1.0499679047e-04
 1.0556704365e-04
 1.0614034545e-04
 1.0671679047e-04
 1.0729634960e-04
 1.0787910287e-04
 1.0846501391e-04
 1.0905404633e-04
 1.0964633839e-04
 1.1024184641e-04
 1.1084054131e-04
 1.1144253222e-04
 1.1204781185e-04
 1.1265628564e-04
 1.1326814274e-04
 1.1388326675e-04
 1.1450178863e-04
 1.1512367928e-04
 1.1574885866e-04
 1.1637751595e-04
 1.1700949835e-04
 1.1764500232e-04
 1.1828396237e-04
 1.1892633484e-04
 1.1957222159e-04
 1.2022159353e-04
 1.2087452342e-04
 1.2153104035e-04
 1.2219110795e-04
 1.2285468983e-04
 1.2352192425e-04
 1.2419269478e-04
 1.2486724881e-04
 1.2554538262e-04
 1.2622716895e-04
 1.2691275333e-04
 1.2760194659e-04
 1.2829498155e-04
 1.2899180001e-04
 1.2969238742e-04
 1.3039670011e-04
 1.3110481086e-04
 1.3181686518e-04
 1.3253280486e-04
 1.3325261534e-04
 1.3397625298e-04
 1.3470389240e-04
 1.3543543173e-04
 1.3617100194e-04
 1.3691060303e-04
 1.3765407493e-04
 1.3840173779e-04
 1.3915330055e-04
 1.3990909792e-04
 1.4066896983e-04
 1.4143295994e-04
 1.4220103913e-04
 1.4297335292e-04
 1.4374978491e-04
 1.4453050971e-04
 1.4531552733e-04
 1.4610463404e-04
 1.4689817908e-04
 1.4769590052e-04
 1.4849808940e-04
 1.4930462930e-04
 1.5011543292e-04
 1.5093073307e-04
 1.5175036970e-04
 1.5257456107e-04
 1.5340323444e-04
 1.5423631703e-04
 1.5507401258e-04
 1.5591614647e-04
 1.5676295152e-04
 1.5761438408e-04
 1.5847042960e-04
 1.5933101531e-04
 1.6019635950e-04
 1.6106631665e-04
 1.6194110503e-04
 1.6282065189e-04
 1.6370486992e-04
 1.6459396284e-04
 1.6548778513e-04
 1.6638661327e-04
 1.6729028721e-04
 1.6819876328e-04
 1.6911230341e-04
 1.7003066023e-04
 1.7095415387e-04
 1.7188265338e-04
 1.7281604232e-04
 1.7375469906e-04
 1.7469824525e-04
 1.7564705922e-04
 1.7660108279e-04
 1.7756019952e-04
 1.7852446763e-04
 1.7949406174e-04
 1.8046885089e-04
 1.8144896603e-04
 1.8243449449e-04
 1.8342523254e-04
 1.8442142755e-04
 1.8542293401e-04
 1.8643004296e-04
 1.8744256522e-04
 1.8846060266e-04
 1.8948403886e-04
 1.9051306299e-04
 1.9154779147e-04
 1.9258810789e-04
 1.9363411411e-04
 1.9468566461e-04
 1.9574305043e-04
 1.9680602418e-04
 1.9787492056e-04
 1.9894960860e-04
 2.0003017562e-04
 2.0111646154e-04
 2.0220862643e-04
 2.0330690313e-04
 2.0441107336e-04
 2.0552129718e-04
 2.0663737087e-04
 2.0775970188e-04
 2.0888795552e-04
 2.1002245194e-04
 2.1116311837e-04
 2.1230988204e-04
 2.1346299036e-04
 2.1462218137e-04
 2.1578786254e-04
 2.1695984469e-04
 2.1813808416e-04
 2.1932285745e-04
 2.2051388805e-04
 2.2171155433e-04
 2.2291569621e-04
 2.2412625549e-04
 2.2534353775e-04
 2.2656742658e-04
 2.2779780556e-04
 2.2903502395e-04
 2.3027899442e-04
 2.3152952781e-04
 2.3278703156e-04
 2.3405120010e-04
 2.3532239720e-04
 2.3660046281e-04
 2.3788533872e-04
 2.3917734507e-04
 2.4047621991e-04
 2.4178229796e-04
 2.4309550645e-04
 2.4441568530e-04
 2.4574314011e-04
 2.4707763805e-04
 2.4841955747e-04
 2.4976881105e-04
 2.5112516596e-04
 2.5248905877e-04
 2.5386028574e-04
 2.5523905060e-04
 2.5662529515e-04
 2.5801910670e-04
 2.5942025241e-04
 2.6082925615e-04
 2.6224573958e-04
 2.6367002283e-04
 2.6510210591e-04
 2.6654172689e-04
 2.6798938052e-04
 2.6944465935e-04
 2.7090811636e-04
 2.7237946051e-04
 2.7385883732e-04
 2.7534601395e-04
 2.7684157249e-04
 2.7834493085e-04
 2.7985670022e-04
 2.8137664776e-04
 2.8290465707e-04
 2.8444122290e-04
 2.8598585050e-04
 2.8753909282e-04
 2.8910086257e-04
 2.9067078140e-04
 2.9224946047e-04
 2.9383655055e-04
 2.9543248820e-04
 2.9703701148e-04
 2.9865029501e-04
 3.0027219327e-04
 3.0190299731e-04
 3.0354247428e-04
 3.0519108986e-04
 3.0684866942e-04
 3.0851500924e-04
 3.1019060407e-04
 3.1187519198e-04
 3.1356903492e-04
 3.1527207466e-04
 3.1698419480e-04
 3.1870583189e-04
 3.2043660758e-04
 3.2217698754e-04
 3.2392673893e-04
 3.2568586175e-04
 3.2745467615e-04
 3.2923321123e-04
 3.3102111774e-04
 3.3281903598e-04
 3.3462658757e-04
 3.3644383075e-04
 3.3827111474e-04
 3.4010809031e-04
 3.4195536864e-04
 3.4381251317e-04
 3.4567961120e-04
 3.4755715751e-04
 3.4944454092e-04
 3.5134245991e-04
 3.5325068166e-04
 3.5516923526e-04
 3.5709800432e-04
 3.5903751268e-04
 3.6098729470e-04
 3.6294793244e-04
 3.6491913488e-04
 3.6690087290e-04
 3.6889355397e-04
 3.7089688703e-04
 3.7291130866e-04
 3.7493670243e-04
 3.7697286461e-04
 3.7902023178e-04
 3.8107854198e-04
 3.8314826088e-04
 3.8522921386e-04
 3.8732122630e-04
 3.8942485116e-04
 3.9153991384e-04
 3.9366621058e-04
 3.9580432349e-04
 3.9795378689e-04
 4.0011509554e-04
 4.0228822036e-04
 4.0447292849e-04
 4.0666974382e-04
 4.0887837531e-04
 4.1109885206e-04
 4.1333166882e-04
 4.1557621444e-04
 4.1783330380e-04
 4.2010273319e-04
 4.2238400783e-04
 4.2467811727e-04
 4.2698468314e-04
 4.2930344352e-04
 4.3163515511e-04
 4.3397938134e-04
 4.3633615132e-04
 4.3870598893e-04
 4.4108848670e-04
 4.4348402298e-04
 4.4589274330e-04
 4.4831418199e-04
 4.5074912487e-04
 4.5319684432e-04
 4.5565830078e-04
 4.5813311590e-04
 4.6062099864e-04
 4.6312273480e-04
 4.6563777141e-04
 4.6816671966e-04
 4.7070949222e-04
 4.7326568165e-04
 4.7583607375e-04
 4.7842046479e-04
 4.8101853463e-04
 4.8363109818e-04
 4.8625783529e-04
 4.8889854224e-04
 4.9155374290e-04
 4.9422326265e-04
 4.9690745072e-04
 4.9960636534e-04
 5.0231942441e-04
 5.0504767569e-04
 5.0779036246e-04
 5.1054829964e-04
 5.1332113799e-04
 5.1610911032e-04
 5.1891186740e-04
 5.2173010772e-04
 5.2456348203e-04
 5.2741251420e-04
 5.3027702961e-04
 5.3315667901e-04
 5.3605245193e-04
 5.3896353347e-04
 5.4189079674e-04
 5.4483383428e-04
 5.4779264610e-04
 5.5076787248e-04
 5.5375869852e-04
 5.5676628835e-04
 5.5979023455e-04
 5.6283018785e-04
 5.6588713778e-04
 5.6896056049e-04
 5.7205033954e-04
 5.7515723165e-04
 5.7828112040e-04
 5.8142142370e-04
 5.8457936393e-04
 5.8775400976e-04
 5.9094623430e-04
 5.9415586293e-04
 5.9738237178e-04
 6.0062680859e-04
 6.0388864949e-04
 6.0716847656e-04
 6.1046611518e-04
 6.1378133250e-04
 6.1711488524e-04
 6.2046654057e-04
 6.2383612385e-04
 6.2722433358e-04
 6.3063082052e-04
 6.3405552646e-04
 6.3749920810e-04
 6.4096128335e-04
 6.4444245072e-04
 6.4794259379e-04
 6.5146130510e-04
 6.5499951597e-04
 6.5855646972e-04
 6.6213327227e-04
 6.6572945798e-04
 6.6934467759e-04
 6.7298021168e-04
 6.7663518712e-04
 6.8030983675e-04
 6.8400474265e-04
 6.8771973019e-04
 6.9145427551e-04
 6.9520995021e-04
 6.9898524089e-04
 7.0278148632e-04
 7.0659857010e-04
 7.1043573553e-04
 7.1429420495e-04
 7.1817339631e-04
 7.2207400808e-04
 7.2599569103e-04
 7.2993827052e-04
 7.3390273610e-04
 7.3788856389e-04
 7.4189581210e-04
 7.4592512101e-04
 7.4997596676e-04
 7.5404922245e-04
 7.5814477168e-04
 7.6226179954e-04
 7.6640199404e-04
 7.7056454029e-04
 7.7474897262e-04
 7.7895692084e-04
 7.8318687156e-04
 7.8744080383e-04
 7.9171749530e-04
 7.9601688776e-04
 8.0034026178e-04
 8.0468726810e-04
 8.0905703362e-04
 8.1345112994e-04
 8.1786868395e-04
 8.2231074339e-04
 8.2677695900e-04
 8.3126674872e-04
 8.3578162594e-04
 8.4032083396e-04
 8.4488443099e-04
 8.4947305731e-04
 8.5408613086e-04
 8.5872493219e-04
 8.6338887922e-04
 8.6807750631e-04
 8.7279226864e-04
 8.7753275875e-04
 8.8229816174e-04
 8.8709004922e-04
 8.9190743165e-04
 8.9675153140e-04
 9.0162199922e-04
 9.0651836945e-04
 9.1144192265e-04
 9.1639213497e-04
 9.2136865715e-04
 9.2637282796e-04
 9.3140359968e-04
 9.3646236928e-04
 9.4154843828e-04
 9.4666163204e-04
 9.5180305652e-04
 9.5697259530e-04
 9.6216966631e-04
 9.6739525907e-04
 9.7264861688e-04
 9.7793131135e-04
 9.8324287683e-04
 9.8858214915e-04
 9.9395168945e-04
 9.9934975151e-04
 1.0047770338e-03
 1.0102341184e-03
 1.0157204233e-03
 1.0212371126e-03
 1.0267836042e-03
 1.0323595488e-03
 1.0379665764e-03
 1.0436038719e-03
 1.0492712026e-03
 1.0549700819e-03
 1.0606993455e-03
 1.0664600413e-03
 1.0722522857e-03
 1.0780752636e-03
 1.0839303723e-03
 1.0898176115e-03
 1.0957357008e-03
 1.1016872013e-03
 1.1076697847e-03
 1.1136857793e-03
 1.1197343701e-03
 1.1258153245e-03
 1.1319299228e-03
 1.1380770011e-03
 1.1442579562e-03
 1.1504727881e-03
 1.1567203328e-03
 1.1630029185e-03
 1.1693196138e-03
 1.1756696040e-03
 1.1820549844e-03
 1.1884740088e-03
 1.1949288892e-03
 1.2014191598e-03
 1.2079435401e-03
 1.2145038927e-03
 1.2211002177e-03
 1.2277314672e-03
 1.2343995040e-03
 1.2411029311e-03
 1.2478438439e-03
 1.2546211947e-03
 1.2614345178e-03
 1.2682855595e-03
 1.2751738541e-03
 1.2820989359e-03
 1.2890620856e-03
 1.2960624881e-03
 1.3031016570e-03
 1.3101791264e-03
 1.3172943145e-03
 1.3244485017e-03
 1.3316422701e-03
 1.3388735242e-03
 1.3461454073e-03
 1.3534559403e-03
 1.3608068693e-03
 1.3681974960e-03
 1.3756277040e-03
 1.3830988901e-03
 1.3906108215e-03
 1.3981624506e-03
 1.4057563385e-03
 1.4133903896e-03
 1.4210668160e-03
 1.4287849190e-03
 1.4365442330e-03
 1.4443462715e-03
 1.4521909179e-03
 1.4600772411e-03
 1.4680072200e-03
 1.4759793412e-03
 1.4839957003e-03
 1.4920554822e-03
 1.5001582215e-03
 1.5083058970e-03
 1.5164979268e-03
 1.5247332631e-03
 1.5330144670e-03
 1.5413395595e-03
 1.5497109853e-03
 1.5581278130e-03
 1.5665894607e-03
 1.5750981402e-03
 1.5836526873e-03
 1.5922526363e-03
 1.6009006649e-03
 1.6095946776e-03
 1.6183367698e-03
 1.6271257773e-03
 1.6359621659e-03
 1.6448474489e-03
 1.6537811607e-03
 1.6627623700e-03
 1.6717929393e-03
 1.6808718210e-03
 1.6900011105e-03
 1.6991794109e-03
 1.7084071878e-03
 1.7176859546e-03
 1.7270152457e-03
 1.7363937804e-03
 1.7458247021e-03
 1.7553053331e-03
 1.7648387002e-03
 1.7744242214e-03
 1.7840599176e-03
 1.7937502125e-03
 1.8034911482e-03
 1.8132863333e-03
 1.8231344875e-03
 1.8330353778e-03
 1.8429906340e-03
 1.8530004891e-03
 1.8630634295e-03
 1.8731819000e-03
 1.8833559006e-03
 1.8935832195e-03
 1.9038679311e-03
 1.9142071251e-03
 1.9246034790e-03
 1.9350566436e-03
 1.9455649890e-03
 1.9561320078e-03
 1.9667549059e-03
 1.9774367101e-03
 1.9881762564e-03
 1.9989733119e-03
 2.0098304376e-03
 2.0207460038e-03
 2.0317195449e-03
 2.0427545533e-03
 2.0538484678e-03
 2.0650029182e-03
 2.0762188360e-03
 2.0874934271e-03
 2.0988311153e-03
 2.1102302708e-03
 2.1216897294e-03
 2.1332132164e-03
 2.1447981708e-03
 2.1564471535e-03
 2.1681592334e-03
 2.1799330134e-03
 2.1917733829e-03
 2.2036768496e-03
 2.2156443447e-03
 2.2276784293e-03
 2.2397758439e-03
 2.2519405466e-03
 2.2641709074e-03
 2.2764664609e-03
 2.2888311651e-03
 2.3012617603e-03
 2.3137594108e-03
 2.3263259791e-03
 2.3389589041e-03
 2.3516626097e-03
 2.3644347675e-03
 2.3772746790e-03
 2.3901867680e-03
 2.4031680077e-03
 2.4162186310e-03
 2.4293416645e-03
 2.4425343145e-03
 2.4558007717e-03
 2.4691384751e-03
 2.4825469591e-03
 2.4960306473e-03
 2.5095867459e-03
 2.5232154876e-03
 2.5369196665e-03
 2.5506969541e-03
 2.5645499118e-03
 2.5784787722e-03
 2.5924812071e-03
 2.6065616403e-03
 2.6207184419e-03
 2.6349509135e-03
 2.6492613833e-03
 2.6636482216e-03
 2.6781156193e-03
 2.6926610153e-03
 2.7072834782e-03
 2.7219874319e-03
 2.7367710136e-03
 2.7516335249e-03
 2.7665782254e-03
 2.7816025540e-03
 2.7967100032e-03
 2.8118996415e-03
 2.8271700721e-03
 2.8425250202e-03
 2.8579609934e-03
 2.8734831139e-03
 2.8890899848e-03
 2.9047792777e-03
 2.9205563478e-03
 2.9364181682e-03
 2.9523642734e-03
 2.9683993198e-03
 2.9845216777e-03
 3.0007292517e-03
 3.0170269310e-03
 3.0334109906e-03
 3.0498858541e-03
 3.0664505903e-03
 3.0831031036e-03
 3.0998485163e-03
 3.1166845001e-03
 3.1336096581e-03
 3.1506288797e-03
 3.1677391380e-03
 3.1849432271e-03
 3.2022418454e-03
 3.2196315005e-03
 3.2371180132e-03
 3.2546999864e-03
 3.2723748591e-03
 3.2901475206e-03
 3.3080154099e-03
 3.3259813208e-03
 3.3440459520e-03
 3.3622053452e-03
 3.3804667182e-03
 3.3988237847e-03
 3.4172839951e-03
 3.4358445555e-03
 3.4545031376e-03
 3.4732650965e-03
 3.4921295010e-03
 3.5110935569e-03
 3.5301630851e-03
 3.5493359901e-03
 3.5686108749e-03
 3.5879933275e-03
 3.6074777599e-03
 3.6270711571e-03
 3.6467704922e-03
 3.6665741354e-03
 3.6864883732e-03
 3.7065080833e-03
 3.7266383879e-03
 3.7468788214e-03
 3.7672265898e-03
 3.7876879796e-03
 3.8082592655e-03
 3.8289399818e-03
 3.8497364148e-03
 3.8706425112e-03
 3.8916647900e-03
 3.9127999917e-03
 3.9340509102e-03
 3.9554168470e-03
 3.9768978022e-03
 3.9984970354e-03
 4.0202136151e-03
 4.0420466103e-03
 4.0639992803e-03
 4.0860706940e-03
 4.1082608514e-03
 4.1305739433e-03
 4.1530062445e-03
 4.1755614802e-03
 4.1982387193e-03
 4.2210393585e-03
 4.2439633980e-03
 4.2670136318e-03
 4.2901872657e-03
 4.3134870939e-03
 4.3369126506e-03
 4.3604657985e-03
 4.3841488659e-03
 4.4079590589e-03
 4.4318982400e-03
 4.4559687376e-03
 4.4801686890e-03
 4.5044994913e-03
 4.5289639384e-03
 4.5535601676e-03
 4.5782909729e-03
 4.6031558886e-03
 4.6281553805e-03
 4.6532889828e-03
 4.6785604209e-03
 4.7039724886e-03
 4.7295177355e-03
 4.7552031465e-03
 4.7810305841e-03
 4.8069953918e-03
 4.8331017606e-03
 4.8593520187e-03
 4.8857401125e-03
 4.9122758210e-03
 4.9389544874e-03
 4.9657784402e-03
 4.9927481450e-03
 5.0198622048e-03
 5.0471248105e-03
 5.0745378248e-03
 5.1020951942e-03
 5.1298053004e-03
 5.1576648839e-03
 5.1856758073e-03
 5.2138403989e-03
 5.2421549335e-03
 5.2706259303e-03
 5.2992505953e-03
 5.3280293941e-03
 5.3569683805e-03
 5.3860601038e-03
 5.4153115489e-03
 5.4447231814e-03
 5.4742926732e-03
 5.5040242150e-03
 5.5339154787e-03
 5.5639692582e-03
 5.5941888131e-03
 5.6245694868e-03
 5.6551164016e-03
 5.6858318858e-03
 5.7167094201e-03
 5.7477573864e-03
 5.7789725251e-03
 5.8103566989e-03
 5.8419150300e-03
 5.8736414649e-03
 5.9055406600e-03
 5.9376149438e-03
 5.9698619880e-03
 6.0022836551e-03
 6.0348836705e-03
 6.0676569119e-03
 6.1006112956e-03
 6.1337421648e-03
 6.1670541763e-03
 6.2005487271e-03
 6.2342216261e-03
 6.2680803239e-03
 6.3021220267e-03
 6.3363485970e-03
 6.3707623631e-03
 6.4053609967e-03
 6.4401486889e-03
 6.4751235768e-03
 6.5102889203e-03
 6.5456484444e-03
 6.5811993554e-03
 6.6169393249e-03
 6.6528772004e-03
 6.6890097223e-03
 6.7253354937e-03
 6.7618628964e-03
 6.7985854112e-03
 6.8355086260e-03
 6.8726311438e-03
 6.9099557586e-03
 6.9474857301e-03
 6.9852164015e-03
 7.0231524296e-03
 7.0612975396e-03
 7.0996433496e-03
 7.1382028982e-03
 7.1769705974e-03
 7.2159492411e-03
 7.2551397607e-03
 7.2945379652e-03
 7.3341564275e-03
 7.3739876971e-03
 7.4140382931e-03
 7.4543026276e-03
 7.4947886169e-03
 7.5354906730e-03
 7.5764162466e-03
 7.6175634749e-03
 7.6589342207e-03
 7.7005312778e-03
 7.7423499897e-03
 7.7844006009e-03
 7.8266756609e-03
 7.8691821545e-03
 7.9119205475e-03
 7.9548889771e-03
 7.9980930313e-03
 8.0415289849e-03
 8.0852014944e-03
 8.1291152164e-03
 8.1732636318e-03
 8.2176513970e-03
 8.2622841001e-03
 8.3071514964e-03
 8.3522712812e-03
 8.3976332098e-03
 8.4432410076e-03
 8.4890946746e-03
 8.5351970047e-03
 8.5815517232e-03
 8.6281597614e-03
 8.6750173941e-03
 8.7221320719e-03
 8.7695047259e-03
 8.8171279058e-03
 8.8650137186e-03
 8.9131584391e-03
 8.9615676552e-03
 9.0102385730e-03
 9.0591702610e-03
 9.1083720326e-03
 9.1578382999e-03
 9.2075727880e-03
 9.2575810850e-03
 9.3078585342e-03
 9.3584097922e-03
 9.4092367217e-03
 9.4603374600e-03
 9.5117166638e-03
 9.5633752644e-03
 9.6153104678e-03
 9.6675334498e-03
 9.7200358286e-03
 9.7728259861e-03
 9.8259048536e-03
 9.8792668432e-03
 9.9329221994e-03
 9.9868681282e-03
 1.0041102767e-02
 1.0095638223e-02
 1.0150467977e-02
 1.0205592960e-02
 1.0261021554e-02
 1.0316746309e-02
 1.0372776538e-02
 1.0429109447e-02
 1.0485751554e-02
 1.0542702861e-02
 1.0599955916e-02
 1.0657524690e-02
 1.0715408251e-02
 1.0773601010e-02
 1.0832113214e-02
 1.0890942998e-02
 1.0950089432e-02
 1.1009560898e-02
 1.1069354601e-02
 1.1129468679e-02
 1.1189914308e-02
 1.1250683106e-02
 1.1311789975e-02
 1.1373220943e-02
 1.1434988119e-02
 1.1497095227e-02
 1.1559532955e-02
 1.1622312479e-02
 1.1685436592e-02
 1.1748895049e-02
 1.1812705547e-02
 1.1876860633e-02
 1.1941361241e-02
 1.2006217614e-02
 1.2071422301e-02
 1.2136980891e-02
 1.2202898040e-02
 1.2269172817e-02
 1.2335806154e-02
 1.2402802706e-02
 1.2470155954e-02
 1.2537886389e-02
 1.2605976313e-02
 1.2674440630e-02
 1.2743277475e-02
 1.2812480330e-02
 1.2882067822e-02
 1.2952029705e-02
 1.3022370636e-02
 1.3093098998e-02
 1.3164200820e-02
 1.3235698454e-02
 1.3307580724e-02
 1.3379852287e-02
 1.3452521525e-02
 1.3525583781e-02
 1.3599036261e-02
 1.3672896661e-02
 1.3747153804e-02
 1.3821813278e-02
 1.3896882534e-02
 1.3972349465e-02
 1.4048236422e-02
 1.4124531299e-02
 1.4201239683e-02
 1.4278369956e-02
 1.4355914667e-02
 1.4433880337e-02
 1.4512274414e-02
 1.4591084793e-02
 1.4670331031e-02
 1.4750006609e-02
 1.4830108732e-02
 1.4910656959e-02
 1.4991628937e-02
 1.5073051676e-02
 1.5154910274e-02
 1.5237216838e-02
 1.5319971368e-02
 1.5403181314e-02
 1.5486828983e-02
 1.5570941381e-02
 1.5655502677e-02
 1.5740528703e-02
 1.5826016665e-02
 1.5911964700e-02
 1.5998383984e-02
 1.6085267067e-02
 1.6172628850e-02
 1.6260465607e-02
 1.6348771751e-02
 1.6437564045e-02
 1.6526835039e-02
 1.6616588458e-02
 1.6706839204e-02
 1.6797574237e-02
 1.6888797283e-02
 1.6980525106e-02
 1.7072739080e-02
 1.7165465280e-02
 1.7258694395e-02
 1.7352420837e-02
 1.7446661368e-02
 1.7541412264e-02
 1.7636677250e-02
 1.7732465640e-02
 1.7828769982e-02
 1.7925595865e-02
 1.8022952601e-02
 1.8120832741e-02
 1.8219245598e-02
 1.8318194896e-02
 1.8417680636e-02
 1.8517710268e-02
 1.8618270755e-02
 1.8719391897e-02
 1.8821053207e-02
 1.8923271447e-02
 1.9026044756e-02
 1.9129374996e-02
 1.9233262166e-02
 1.9337719306e-02
 1.9442744553e-02
 1.9548337907e-02
 1.9654504955e-02
 1.9761251286e-02
 1.9868571311e-02
 1.9976478070e-02
 2.0084967837e-02
 2.0194055513e-02
 2.0303722471e-02
 2.0413991064e-02
