aces_luts/Dolby_PQ_2000_nits_Shaper_to_linear.spi1d
Version 1
From 0.0 1.0
Length 4096
Components 3
{
 4.3945314246e-05 4.3945314246e-05 4.3945314246e-05
 4.4081152737e-05 4.4081152737e-05 4.4081152737e-05
 4.4401262130e-05 4.4401262130e-05 4.4401262130e-05
 4.4857963076e-05 4.4857963076e-05 4.4857963076e-05
 4.5433615014e-05 4.5433615014e-05 4.5433615014e-05
 4.6118351747e-05 4.6118351747e-05 4.6118351747e-05
 4.6905854106e-05 4.6905854106e-05 4.6905854106e-05
 4.7791727411e-05 4.7791727411e-05 4.7791727411e-05
 4.8772646551e-05 4.8772646551e-05 4.8772646551e-05
 4.9846181355e-05 4.9846181355e-05 4.9846181355e-05
 5.1010392781e-05 5.1010392781e-05 5.1010392781e-05
 5.2263785619e-05 5.2263785619e-05 5.2263785619e-05
 5.3605093854e-05 5.3605093854e-05 5.3605093854e-05
 5.5033327953e-05 5.5033327953e-05 5.5033327953e-05
 5.6547647546e-05 5.6547647546e-05 5.6547647546e-05
 5.8147514210e-05 5.8147514210e-05 5.8147514210e-05
 5.9832505940e-05 5.9832505940e-05 5.9832505940e-05
 6.1601793277e-05 6.1601793277e-05 6.1601793277e-05
 6.3455488998e-05 6.3455488998e-05 6.3455488998e-05
 6.5393141995e-05 6.5393141995e-05 6.5393141995e-05
 6.7414614023e-05 6.7414614023e-05 6.7414614023e-05
 6.9519846875e-05 6.9519846875e-05 6.9519846875e-05
 7.1708702308e-05 7.1708702308e-05 7.1708702308e-05
 7.3981093010e-05 7.3981093010e-05 7.3981093010e-05
 7.6336771599e-05 7.6336771599e-05 7.6336771599e-05
 7.8776371083e-05 7.8776371083e-05 7.8776371083e-05
 8.1299651356e-05 8.1299651356e-05 8.1299651356e-05
 8.3906386863e-05 8.3906386863e-05 8.3906386863e-05
 8.6597487098e-05 8.6597487098e-05 8.6597487098e-05
 8.9372144430e-05 8.9372144430e-05 8.9372144430e-05
 9.2231595772e-05 9.2231595772e-05 9.2231595772e-05
 9.5174960734e-05 9.5174960734e-05 9.5174960734e-05
 9.8202835943e-05 9.8202835943e-05 9.8202835943e-05
 1.0131529416e-04 1.0131529416e-04 1.0131529416e-04
 1.0451283742e-04 1.0451283742e-04 1.0451283742e-04
 1.0779620789e-04 1.0779620789e-04 1.0779620789e-04
 1.1116450332e-04 1.1116450332e-04 1.1116450332e-04
 1.1461888062e-04 1.1461888062e-04 1.1461888062e-04
 1.1815849575e-04 1.1815849575e-04 1.1815849575e-04
 1.2178554607e-04 1.2178554607e-04 1.2178554607e-04
 1.2549824896e-04 1.2549824896e-04 1.2549824896e-04
 1.2929836521e-04 1.2929836521e-04 1.2929836521e-04
 1.3318550191e-04 1.3318550191e-04 1.3318550191e-04
 1.3716060494e-04 1.3716060494e-04 1.3716060494e-04
 1.4122326684e-04 1.4122326684e-04 1.4122326684e-04
 1.4537281822e-04 1.4537281822e-04 1.4537281822e-04
 1.4961243141e-04 1.4961243141e-04 1.4961243141e-04
 1.5394024376e-04 1.5394024376e-04 1.5394024376e-04
 1.5835699742e-04 1.5835699742e-04 1.5835699742e-04
 1.6286497703e-04 1.6286497703e-04 1.6286497703e-04
 1.6746028268e-04 1.6746028268e-04 1.6746028268e-04
 1.7214828404e-04 1.7214828404e-04 1.7214828404e-04
 1.7692627443e-04 1.7692627443e-04 1.7692627443e-04
 1.8179352628e-04 1.8179352628e-04 1.8179352628e-04
 1.8675439060e-04 1.8675439060e-04 1.8675439060e-04
 1.9180502568e-04 1.9180502568e-04 1.9180502568e-04
 1.9695033552e-04 1.9695033552e-04 1.9695033552e-04
 2.0218643476e-04 2.0218643476e-04 2.0218643476e-04
 2.0751524426e-04 2.0751524426e-04 2.0751524426e-04
 2.1293784084e-04 2.1293784084e-04 2.1293784084e-04
 2.1845381707e-04 2.1845381707e-04 2.1845381707e-04
 2.2406406060e-04 2.2406406060e-04 2.2406406060e-04
 2.2976975015e-04 2.2976975015e-04 2.2976975015e-04
 2.3557018721e-04 2.3557018721e-04 2.3557018721e-04
 2.4146538635e-04 2.4146538635e-04 2.4146538635e-04
 2.4745706469e-04 2.4745706469e-04 2.4745706469e-04
 2.5354418904e-04 2.5354418904e-04 2.5354418904e-04
 2.5972945150e-04 2.5972945150e-04 2.5972945150e-04
 2.6600886486e-04 2.6600886486e-04 2.6600886486e-04
 2.7238953044e-04 2.7238953044e-04 2.7238953044e-04
 2.7886603493e-04 2.7886603493e-04 2.7886603493e-04
 2.8544088127e-04 2.8544088127e-04 2.8544088127e-04
 2.9211450601e-04 2.9211450601e-04 2.9211450601e-04
 2.9888917925e-04 2.9888917925e-04 2.9888917925e-04
 3.0575995333e-04 3.0575995333e-04 3.0575995333e-04
 3.1273497734e-04 3.1273497734e-04 3.1273497734e-04
 3.1980639324e-04 3.1980639324e-04 3.1980639324e-04
 3.2698299037e-04 3.2698299037e-04 3.2698299037e-04
 3.3425987931e-04 3.3425987931e-04 3.3425987931e-04
 3.4163589589e-04 3.4163589589e-04 3.4163589589e-04
 3.4911662806e-04 3.4911662806e-04 3.4911662806e-04
 3.5670126090e-04 3.5670126090e-04 3.5670126090e-04
 3.6438443931e-04 3.6438443931e-04 3.6438443931e-04
 3.7217687350e-04 3.7217687350e-04 3.7217687350e-04
 3.8007367402e-04 3.8007367402e-04 3.8007367402e-04
 3.8806890370e-04 3.8806890370e-04 3.8806890370e-04
 3.9617455332e-04 3.9617455332e-04 3.9617455332e-04
 4.0438387077e-04 4.0438387077e-04 4.0438387077e-04
 4.1270168731e-04 4.1270168731e-04 4.1270168731e-04
 4.2112765368e-04 4.2112765368e-04 4.2112765368e-04
 4.2965437751e-04 4.2965437751e-04 4.2965437751e-04
 4.3829006609e-04 4.3829006609e-04 4.3829006609e-04
 4.4703931781e-04 4.4703931781e-04 4.4703931781e-04
 4.5589229558e-04 4.5589229558e-04 4.5589229558e-04
 4.6485557687e-04 4.6485557687e-04 4.6485557687e-04
 4.7393055866e-04 4.7393055866e-04 4.7393055866e-04
 4.8310915008e-04 4.8310915008e-04 4.8310915008e-04
 4.9240270164e-04 4.9240270164e-04 4.9240270164e-04
 5.0180329708e-04 5.0180329708e-04 5.0180329708e-04
 5.1132281078e-04 5.1132281078e-04 5.1132281078e-04
 5.2094779676e-04 5.2094779676e-04 5.2094779676e-04
 5.3068937268e-04 5.3068937268e-04 5.3068937268e-04
 5.4054742213e-04 5.4054742213e-04 5.4054742213e-04
 5.5050780065e-04 5.5050780065e-04 5.5050780065e-04
 5.6058791233e-04 5.6058791233e-04 5.6058791233e-04
 5.7078246027e-04 5.7078246027e-04 5.7078246027e-04
 5.8109429665e-04 5.8109429665e-04 5.8109429665e-04
 5.9151969617e-04 5.9151969617e-04 5.9151969617e-04
 6.0206168564e-04 6.0206168564e-04 6.0206168564e-04
 6.1271397863e-04 6.1271397863e-04 6.1271397863e-04
 6.2348897336e-04 6.2348897336e-04 6.2348897336e-04
 6.3438725192e-04 6.3438725192e-04 6.3438725192e-04
 6.4539187588e-04 6.4539187588e-04 6.4539187588e-04
 6.5652455669e-04 6.5652455669e-04 6.5652455669e-04
 6.6777010215e-04 6.6777010215e-04 6.6777010215e-04
 6.7913596286e-04 6.7913596286e-04 6.7913596286e-04
 6.9062132388e-04 6.9062132388e-04 6.9062132388e-04
 7.0223252987e-04 7.0223252987e-04 7.0223252987e-04
 7.1396114072e-04 7.1396114072e-04 7.1396114072e-04
 7.2580721462e-04 7.2580721462e-04 7.2580721462e-04
 7.3778675869e-04 7.3778675869e-04 7.3778675869e-04
 7.4988190318e-04 7.4988190318e-04 7.4988190318e-04
 7.6209759573e-04 7.6209759573e-04 7.6209759573e-04
 7.7443913324e-04 7.7443913324e-04 7.7443913324e-04
 7.8691047383e-04 7.8691047383e-04 7.8691047383e-04
 7.9950335203e-04 7.9950335203e-04 7.9950335203e-04
 8.1221689470e-04 8.1221689470e-04 8.1221689470e-04
 8.2506175386e-04 8.2506175386e-04 8.2506175386e-04
 8.3803437883e-04 8.3803437883e-04 8.3803437883e-04
 8.5112632951e-04 8.5112632951e-04 8.5112632951e-04
 8.6435710546e-04 8.6435710546e-04 8.6435710546e-04
 8.7771529797e-04 8.7771529797e-04 8.7771529797e-04
 8.9118949836e-04 8.9118949836e-04 8.9118949836e-04
 9.0479920618e-04 9.0479920618e-04 9.0479920618e-04
 9.1853871709e-04 9.1853871709e-04 9.1853871709e-04
 9.3241187278e-04 9.3241187278e-04 9.3241187278e-04
 9.4640755560e-04 9.4640755560e-04 9.4640755560e-04
 9.6054380992e-04 9.6054380992e-04 9.6054380992e-04
 9.7481149714e-04 9.7481149714e-04 9.7481149714e-04
 9.8920357414e-04 9.8920357414e-04 9.8920357414e-04
 1.0037397733e-03 1.0037397733e-03 1.0037397733e-03
 1.0183986742e-03 1.0183986742e-03 1.0183986742e-03
 1.0332037928e-03 1.0332037928e-03 1.0332037928e-03
 1.0481281206e-03 1.0481281206e-03 1.0481281206e-03
 1.0631972691e-03 1.0631972691e-03 1.0631972691e-03
 1.0784139158e-03 1.0784139158e-03 1.0784139158e-03
 1.0937468614e-03 1.0937468614e-03 1.0937468614e-03
 1.1092214845e-03 1.1092214845e-03 1.1092214845e-03
 1.1248415103e-03 1.1248415103e-03 1.1248415103e-03
 1.1405912228e-03 1.1405912228e-03 1.1405912228e-03
 1.1564989109e-03 1.1564989109e-03 1.1564989109e-03
 1.1725201039e-03 1.1725201039e-03 1.1725201039e-03
 1.1886977591e-03 1.1886977591e-03 1.1886977591e-03
 1.2050013756e-03 1.2050013756e-03 1.2050013756e-03
 1.2214633171e-03 1.2214633171e-03 1.2214633171e-03
 1.2380656553e-03 1.2380656553e-03 1.2380656553e-03
 1.2547943043e-03 1.2547943043e-03 1.2547943043e-03
 1.2716792990e-03 1.2716792990e-03 1.2716792990e-03
 1.2887018966e-03 1.2887018966e-03 1.2887018966e-03
 1.3058638433e-03 1.3058638433e-03 1.3058638433e-03
 1.3232020428e-03 1.3232020428e-03 1.3232020428e-03
 1.3406414073e-03 1.3406414073e-03 1.3406414073e-03
 1.3582548127e-03 1.3582548127e-03 1.3582548127e-03
 1.3760057045e-03 1.3760057045e-03 1.3760057045e-03
 1.3939086348e-03 1.3939086348e-03 1.3939086348e-03
 1.4119513799e-03 1.4119513799e-03 1.4119513799e-03
 1.4301273040e-03 1.4301273040e-03 1.4301273040e-03
 1.4484759886e-03 1.4484759886e-03 1.4484759886e-03
 1.4669799712e-03 1.4669799712e-03 1.4669799712e-03
 1.4856189955e-03 1.4856189955e-03 1.4856189955e-03
 1.5044112224e-03 1.5044112224e-03 1.5044112224e-03
 1.5233568847e-03 1.5233568847e-03 1.5233568847e-03
 1.5424488811e-03 1.5424488811e-03 1.5424488811e-03
 1.5616974561e-03 1.5616974561e-03 1.5616974561e-03
 1.5811016783e-03 1.5811016783e-03 1.5811016783e-03
 1.6006504884e-03 1.6006504884e-03 1.6006504884e-03
 1.6203748528e-03 1.6203748528e-03 1.6203748528e-03
 1.6402313486e-03 1.6402313486e-03 1.6402313486e-03
 1.6602573451e-03 1.6602573451e-03 1.6602573451e-03
 1.6804301413e-03 1.6804301413e-03 1.6804301413e-03
 1.7007821007e-03 1.7007821007e-03 1.7007821007e-03
 1.7212560633e-03 1.7212560633e-03 1.7212560633e-03
 1.7419031356e-03 1.7419031356e-03 1.7419031356e-03
 1.7627223860e-03 1.7627223860e-03 1.7627223860e-03
 1.7836906482e-03 1.7836906482e-03 1.7836906482e-03
 1.8048293423e-03 1.8048293423e-03 1.8048293423e-03
 1.8260863144e-03 1.8260863144e-03 1.8260863144e-03
 1.8475727411e-03 1.8475727411e-03 1.8475727411e-03
 1.8691750010e-03 1.8691750010e-03 1.8691750010e-03
 1.8909508362e-03 1.8909508362e-03 1.8909508362e-03
 1.9128971035e-03 1.9128971035e-03 1.9128971035e-03
 1.9349859795e-03 1.9349859795e-03 1.9349859795e-03
 1.9572479650e-03 1.9572479650e-03 1.9572479650e-03
 1.9796779379e-03 1.9796779379e-03 1.9796779379e-03
 2.0022809040e-03 2.0022809040e-03 2.0022809040e-03
 2.0250552334e-03 2.0250552334e-03 2.0250552334e-03
 2.0479690284e-03 2.0479690284e-03 2.0479690284e-03
 2.0710816607e-03 2.0710816607e-03 2.0710816607e-03
 2.0943374839e-03 2.0943374839e-03 2.0943374839e-03
 2.1177560557e-03 2.1177560557e-03 2.1177560557e-03
 2.1413804498e-03 2.1413804498e-03 2.1413804498e-03
 2.1651382558e-03 2.1651382558e-03 2.1651382558e-03
 2.1891014185e-03 2.1891014185e-03 2.1891014185e-03
 2.2132268641e-03 2.2132268641e-03 2.2132268641e-03
 2.2375255357e-03 2.2375255357e-03 2.2375255357e-03
 2.2619920783e-03 2.2619920783e-03 2.2619920783e-03
 2.2866250947e-03 2.2866250947e-03 2.2866250947e-03
 2.3114248179e-03 2.3114248179e-03 2.3114248179e-03
 2.3364210501e-03 2.3364210501e-03 2.3364210501e-03
 2.3615886457e-03 2.3615886457e-03 2.3615886457e-03
 2.3869206198e-03 2.3869206198e-03 2.3869206198e-03
 2.4124563206e-03 2.4124563206e-03 2.4124563206e-03
 2.4381566327e-03 2.4381566327e-03 2.4381566327e-03
 2.4640185293e-03 2.4640185293e-03 2.4640185293e-03
 2.4900487624e-03 2.4900487624e-03 2.4900487624e-03
 2.5163155515e-03 2.5163155515e-03 2.5163155515e-03
 2.5427103974e-03 2.5427103974e-03 2.5427103974e-03
 2.5693068746e-03 2.5693068746e-03 2.5693068746e-03
 2.5960619096e-03 2.5960619096e-03 2.5960619096e-03
 2.6230257936e-03 2.6230257936e-03 2.6230257936e-03
 2.6501840912e-03 2.6501840912e-03 2.6501840912e-03
 2.6775088627e-03 2.6775088627e-03 2.6775088627e-03
 2.7050350327e-03 2.7050350327e-03 2.7050350327e-03
 2.7327162679e-03 2.7327162679e-03 2.7327162679e-03
 2.7606058866e-03 2.7606058866e-03 2.7606058866e-03
 2.7886508033e-03 2.7886508033e-03 2.7886508033e-03
 2.8169045690e-03 2.8169045690e-03 2.8169045690e-03
 2.8453581035e-03 2.8453581035e-03 2.8453581035e-03
 2.8740030248e-03 2.8740030248e-03 2.8740030248e-03
 2.9028151184e-03 2.9028151184e-03 2.9028151184e-03
 2.9318279121e-03 2.9318279121e-03 2.9318279121e-03
 2.9610416386e-03 2.9610416386e-03 2.9610416386e-03
 2.9904108960e-03 2.9904108960e-03 2.9904108960e-03
 3.0200295150e-03 3.0200295150e-03 3.0200295150e-03
 3.0498041306e-03 3.0498041306e-03 3.0498041306e-03
 3.0797766522e-03 3.0797766522e-03 3.0797766522e-03
 3.1099489424e-03 3.1099489424e-03 3.1099489424e-03
 3.1403261237e-03 3.1403261237e-03 3.1403261237e-03
 3.1708560418e-03 3.1708560418e-03 3.1708560418e-03
 3.2016369514e-03 3.2016369514e-03 3.2016369514e-03
 3.2326171640e-03 3.2326171640e-03 3.2326171640e-03
 3.2637461554e-03 3.2637461554e-03 3.2637461554e-03
 3.2950798050e-03 3.2950798050e-03 3.2950798050e-03
 3.3266656101e-03 3.3266656101e-03 3.3266656101e-03
 3.3583983313e-03 3.3583983313e-03 3.3583983313e-03
 3.3903867006e-03 3.3903867006e-03 3.3903867006e-03
 3.4225175623e-03 3.4225175623e-03 3.4225175623e-03
 3.4548554104e-03 3.4548554104e-03 3.4548554104e-03
 3.4874440171e-03 3.4874440171e-03 3.4874440171e-03
 3.5201760475e-03 3.5201760475e-03 3.5201760475e-03
 3.5532242619e-03 3.5532242619e-03 3.5532242619e-03
 3.5863525700e-03 3.5863525700e-03 3.5863525700e-03
 3.6197458394e-03 3.6197458394e-03 3.6197458394e-03
 3.6533395760e-03 3.6533395760e-03 3.6533395760e-03
 3.6871256307e-03 3.6871256307e-03 3.6871256307e-03
 3.7211661693e-03 3.7211661693e-03 3.7211661693e-03
 3.7553524598e-03 3.7553524598e-03 3.7553524598e-03
 3.7897969596e-03 3.7897969596e-03 3.7897969596e-03
 3.8244409952e-03 3.8244409952e-03 3.8244409952e-03
 3.8592831697e-03 3.8592831697e-03 3.8592831697e-03
 3.8943837862e-03 3.8943837862e-03 3.8943837862e-03
 3.9296154864e-03 3.9296154864e-03 3.9296154864e-03
 3.9651133120e-03 3.9651133120e-03 3.9651133120e-03
 4.0008099750e-03 4.0008099750e-03 4.0008099750e-03
 4.0367632173e-03 4.0367632173e-03 4.0367632173e-03
 4.0728538297e-03 4.0728538297e-03 4.0728538297e-03
 4.1092038155e-03 4.1092038155e-03 4.1092038155e-03
 4.1458080523e-03 4.1458080523e-03 4.1458080523e-03
 4.1826223023e-03 4.1826223023e-03 4.1826223023e-03
 4.2195580900e-03 4.2195580900e-03 4.2195580900e-03
 4.2568263598e-03 4.2568263598e-03 4.2568263598e-03
 4.2942911386e-03 4.2942911386e-03 4.2942911386e-03
 4.3320260011e-03 4.3320260011e-03 4.3320260011e-03
 4.3698786758e-03 4.3698786758e-03 4.3698786758e-03
 4.4079995714e-03 4.4079995714e-03 4.4079995714e-03
 4.4463151135e-03 4.4463151135e-03 4.4463151135e-03
 4.4848877005e-03 4.4848877005e-03 4.4848877005e-03
 4.5237336308e-03 4.5237336308e-03 4.5237336308e-03
 4.5627034269e-03 4.5627034269e-03 4.5627034269e-03
 4.6020150185e-03 4.6020150185e-03 4.6020150185e-03
 4.6414313838e-03 4.6414313838e-03 4.6414313838e-03
 4.6812077053e-03 4.6812077053e-03 4.6812077053e-03
 4.7210855410e-03 4.7210855410e-03 4.7210855410e-03
 4.7612376511e-03 4.7612376511e-03 4.7612376511e-03
 4.8016631044e-03 4.8016631044e-03 4.8016631044e-03
 4.8422748223e-03 4.8422748223e-03 4.8422748223e-03
 4.8831612803e-03 4.8831612803e-03 4.8831612803e-03
 4.9243099056e-03 4.9243099056e-03 4.9243099056e-03
 4.9655674957e-03 4.9655674957e-03 4.9655674957e-03
 5.0071878359e-03 5.0071878359e-03 5.0071878359e-03
 5.0489809364e-03 5.0489809364e-03 5.0489809364e-03
 5.0910636783e-03 5.0910636783e-03 5.0910636783e-03
 5.1333275624e-03 5.1333275624e-03 5.1333275624e-03
 5.1758540794e-03 5.1758540794e-03 5.1758540794e-03
 5.2185757086e-03 5.2185757086e-03 5.2185757086e-03
 5.2615697496e-03 5.2615697496e-03 5.2615697496e-03
 5.3048431873e-03 5.3048431873e-03 5.3048431873e-03
 5.3483778611e-03 5.3483778611e-03 5.3483778611e-03
 5.3921048529e-03 5.3921048529e-03 5.3921048529e-03
 5.4360134527e-03 5.4360134527e-03 5.4360134527e-03
 5.4801944643e-03 5.4801944643e-03 5.4801944643e-03
 5.5247545242e-03 5.5247545242e-03 5.5247545242e-03
 5.5693881586e-03 5.5693881586e-03 5.5693881586e-03
 5.6143994443e-03 5.6143994443e-03 5.6143994443e-03
 5.6595900096e-03 5.6595900096e-03 5.6595900096e-03
 5.7050543837e-03 5.7050543837e-03 5.7050543837e-03
 5.7507064193e-03 5.7507064193e-03 5.7507064193e-03
 5.7967267931e-03 5.7967267931e-03 5.7967267931e-03
 5.8429352939e-03 5.8429352939e-03 5.8429352939e-03
 5.8893160895e-03 5.8893160895e-03 5.8893160895e-03
 5.9360787272e-03 5.9360787272e-03 5.9360787272e-03
 5.9831067920e-03 5.9831067920e-03 5.9831067920e-03
 6.0303206556e-03 6.0303206556e-03 6.0303206556e-03
 6.0777156614e-03 6.0777156614e-03 6.0777156614e-03
 6.1254845932e-03 6.1254845932e-03 6.1254845932e-03
 6.1735315248e-03 6.1735315248e-03 6.1735315248e-03
 6.2217605300e-03 6.2217605300e-03 6.2217605300e-03
 6.2702712603e-03 6.2702712603e-03 6.2702712603e-03
 6.3190581277e-03 6.3190581277e-03 6.3190581277e-03
 6.3680065796e-03 6.3680065796e-03 6.3680065796e-03
 6.4173541032e-03 6.4173541032e-03 6.4173541032e-03
 6.4669759013e-03 6.4669759013e-03 6.4669759013e-03
 6.5167811699e-03 6.5167811699e-03 6.5167811699e-03
 6.5668649040e-03 6.5668649040e-03 6.5668649040e-03
 6.6172243096e-03 6.6172243096e-03 6.6172243096e-03
 6.6678686999e-03 6.6678686999e-03 6.6678686999e-03
 6.7187868990e-03 6.7187868990e-03 6.7187868990e-03
 6.7698839121e-03 6.7698839121e-03 6.7698839121e-03
 6.8212547339e-03 6.8212547339e-03 6.8212547339e-03
 6.8730353378e-03 6.8730353378e-03 6.8730353378e-03
 6.9249691442e-03 6.9249691442e-03 6.9249691442e-03
 6.9773085415e-03 6.9773085415e-03 6.9773085415e-03
 7.0298225619e-03 7.0298225619e-03 7.0298225619e-03
 7.0824809372e-03 7.0824809372e-03 7.0824809372e-03
 7.1355476975e-03 7.1355476975e-03 7.1355476975e-03
 7.1889203973e-03 7.1889203973e-03 7.1889203973e-03
 7.2425510734e-03 7.2425510734e-03 7.2425510734e-03
 7.2964811698e-03 7.2964811698e-03 7.2964811698e-03
 7.3506892659e-03 7.3506892659e-03 7.3506892659e-03
 7.4050645344e-03 7.4050645344e-03 7.4050645344e-03
 7.4598370120e-03 7.4598370120e-03 7.4598370120e-03
 7.5149089098e-03 7.5149089098e-03 7.5149089098e-03
 7.5701200403e-03 7.5701200403e-03 7.5701200403e-03
 7.6257525943e-03 7.6257525943e-03 7.6257525943e-03
 7.6816906221e-03 7.6816906221e-03 7.6816906221e-03
 7.7377590351e-03 7.7377590351e-03 7.7377590351e-03
 7.7941329218e-03 7.7941329218e-03 7.7941329218e-03
 7.8509096056e-03 7.8509096056e-03 7.8509096056e-03
 7.9079875723e-03 7.9079875723e-03 7.9079875723e-03
 7.9652182758e-03 7.9652182758e-03 7.9652182758e-03
 8.0228568986e-03 8.0228568986e-03 8.0228568986e-03
 8.0806482583e-03 8.0806482583e-03 8.0806482583e-03
 8.1388661638e-03 8.1388661638e-03 8.1388661638e-03
 8.1973709166e-03 8.1973709166e-03 8.1973709166e-03
 8.2561764866e-03 8.2561764866e-03 8.2561764866e-03
 8.3152605221e-03 8.3152605221e-03 8.3152605221e-03
 8.3744879812e-03 8.3744879812e-03 8.3744879812e-03
 8.4342900664e-03 8.4342900664e-03 8.4342900664e-03
 8.4942374378e-03 8.4942374378e-03 8.4942374378e-03
 8.5543263704e-03 8.5543263704e-03 8.5543263704e-03
 8.6149927229e-03 8.6149927229e-03 8.6149927229e-03
 8.6758239195e-03 8.6758239195e-03 8.6758239195e-03
 8.7369102985e-03 8.7369102985e-03 8.7369102985e-03
 8.7984679267e-03 8.7984679267e-03 8.7984679267e-03
 8.8601354510e-03 8.8601354510e-03 8.8601354510e-03
 8.9222490788e-03 8.9222490788e-03 8.9222490788e-03
 8.9846663177e-03 8.9846663177e-03 8.9846663177e-03
 9.0472139418e-03 9.0472139418e-03 9.0472139418e-03
 9.1103641316e-03 9.1103641316e-03 9.1103641316e-03
 9.1736456379e-03 9.1736456379e-03 9.1736456379e-03
 9.2370519415e-03 9.2370519415e-03 9.2370519415e-03
 9.3010608107e-03 9.3010608107e-03 9.3010608107e-03
 9.3652233481e-03 9.3652233481e-03 9.3652233481e-03
 9.4298161566e-03 9.4298161566e-03 9.4298161566e-03
 9.4947190955e-03 9.4947190955e-03 9.4947190955e-03
 9.5598921180e-03 9.5598921180e-03 9.5598921180e-03
 9.6253762022e-03 9.6253762022e-03 9.6253762022e-03
 9.6911313012e-03 9.6911313012e-03 9.6911313012e-03
 9.7571881488e-03 9.7571881488e-03 9.7571881488e-03
 9.8237125203e-03 9.8237125203e-03 9.8237125203e-03
 9.8905162886e-03 9.8905162886e-03 9.8905162886e-03
 9.9574308842e-03 9.9574308842e-03 9.9574308842e-03
 1.0024811141e-02 1.0024811141e-02 1.0024811141e-02
 1.0092660785e-02 1.0092660785e-02 1.0092660785e-02
 1.0160651989e-02 1.0160651989e-02 1.0160651989e-02
 1.0229084641e-02 1.0229084641e-02 1.0229084641e-02
 1.0297819972e-02 1.0297819972e-02 1.0297819972e-02
 1.0366831906e-02 1.0366831906e-02 1.0366831906e-02
 1.0436146520e-02 1.0436146520e-02 1.0436146520e-02
 1.0505736805e-02 1.0505736805e-02 1.0505736805e-02
 1.0575828142e-02 1.0575828142e-02 1.0575828142e-02
 1.0646198876e-02 1.0646198876e-02 1.0646198876e-02
 1.0716842487e-02 1.0716842487e-02 1.0716842487e-02
 1.0787792504e-02 1.0787792504e-02 1.0787792504e-02
 1.0859223083e-02 1.0859223083e-02 1.0859223083e-02
 1.0930956341e-02 1.0930956341e-02 1.0930956341e-02
 1.1002959684e-02 1.1002959684e-02 1.1002959684e-02
 1.1075270362e-02 1.1075270362e-02 1.1075270362e-02
 1.1148068123e-02 1.1148068123e-02 1.1148068123e-02
 1.1220952496e-02 1.1220952496e-02 1.1220952496e-02
 1.1294541880e-02 1.1294541880e-02 1.1294541880e-02
 1.1367994361e-02 1.1367994361e-02 1.1367994361e-02
 1.1442168616e-02 1.1442168616e-02 1.1442168616e-02
 1.1516604573e-02 1.1516604573e-02 1.1516604573e-02
 1.1591379531e-02 1.1591379531e-02 1.1591379531e-02
 1.1666390114e-02 1.1666390114e-02 1.1666390114e-02
 1.1741934344e-02 1.1741934344e-02 1.1741934344e-02
 1.1817747727e-02 1.1817747727e-02 1.1817747727e-02
 1.1893858202e-02 1.1893858202e-02 1.1893858202e-02
 1.1970273219e-02 1.1970273219e-02 1.1970273219e-02
 1.2047188357e-02 1.2047188357e-02 1.2047188357e-02
 1.2124379165e-02 1.2124379165e-02 1.2124379165e-02
 1.2202105485e-02 1.2202105485e-02 1.2202105485e-02
 1.2279890478e-02 1.2279890478e-02 1.2279890478e-02
 1.2358188629e-02 1.2358188629e-02 1.2358188629e-02
 1.2436746620e-02 1.2436746620e-02 1.2436746620e-02
 1.2515856884e-02 1.2515856884e-02 1.2515856884e-02
 1.2595016509e-02 1.2595016509e-02 1.2595016509e-02
 1.2674690224e-02 1.2674690224e-02 1.2674690224e-02
 1.2754878961e-02 1.2754878961e-02 1.2754878961e-02
 1.2835366651e-02 1.2835366651e-02 1.2835366651e-02
 1.2916154228e-02 1.2916154228e-02 1.2916154228e-02
 1.2997208163e-02 1.2997208163e-02 1.2997208163e-02
 1.3078777120e-02 1.3078777120e-02 1.3078777120e-02
 1.3160683215e-02 1.3160683215e-02 1.3160683215e-02
 1.3243079185e-02 1.3243079185e-02 1.3243079185e-02
 1.3325770386e-02 1.3325770386e-02 1.3325770386e-02
 1.3408495113e-02 1.3408495113e-02 1.3408495113e-02
 1.3492011465e-02 1.3492011465e-02 1.3492011465e-02
 1.3575830497e-02 1.3575830497e-02 1.3575830497e-02
 1.3659907505e-02 1.3659907505e-02 1.3659907505e-02
 1.3744552620e-02 1.3744552620e-02 1.3744552620e-02
 1.3829457574e-02 1.3829457574e-02 1.3829457574e-02
 1.3914658688e-02 1.3914658688e-02 1.3914658688e-02
 1.4000158757e-02 1.4000158757e-02 1.4000158757e-02
 1.4086185023e-02 1.4086185023e-02 1.4086185023e-02
 1.4172757976e-02 1.4172757976e-02 1.4172757976e-02
 1.4259376563e-02 1.4259376563e-02 1.4259376563e-02
 1.4346792363e-02 1.4346792363e-02 1.4346792363e-02
 1.4434203506e-02 1.4434203506e-02 1.4434203506e-02
 1.4522201382e-02 1.4522201382e-02 1.4522201382e-02
 1.4610492624e-02 1.4610492624e-02 1.4610492624e-02
 1.4699299820e-02 1.4699299820e-02 1.4699299820e-02
 1.4788429253e-02 1.4788429253e-02 1.4788429253e-02
 1.4877811074e-02 1.4877811074e-02 1.4877811074e-02
 1.4967788942e-02 1.4967788942e-02 1.4967788942e-02
 1.5058021061e-02 1.5058021061e-02 1.5058021061e-02
 1.5148796141e-02 1.5148796141e-02 1.5148796141e-02
 1.5239913017e-02 1.5239913017e-02 1.5239913017e-02
 1.5331274830e-02 1.5331274830e-02 1.5331274830e-02
 1.5423193574e-02 1.5423193574e-02 1.5423193574e-02
 1.5515445732e-02 1.5515445732e-02 1.5515445732e-02
 1.5608219430e-02 1.5608219430e-02 1.5608219430e-02
 1.5701280907e-02 1.5701280907e-02 1.5701280907e-02
 1.5794947743e-02 1.5794947743e-02 1.5794947743e-02
 1.5888575464e-02 1.5888575464e-02 1.5888575464e-02
 1.5982776880e-02 1.5982776880e-02 1.5982776880e-02
 1.6077544540e-02 1.6077544540e-02 1.6077544540e-02
 1.6172926873e-02 1.6172926873e-02 1.6172926873e-02
 1.6268260777e-02 1.6268260777e-02 1.6268260777e-02
